build/svg/cmd/lc_selectbackground.svg

<?xml version="1.0" encoding="UTF-8" standalone="no"?>
<svg
   xmlns:dc="http://purl.org/dc/elements/1.1/"
   xmlns:cc="http://creativecommons.org/ns#"
   xmlns:rdf="http://www.w3.org/1999/02/22-rdf-syntax-ns#"
   xmlns:svg="http://www.w3.org/2000/svg"
   xmlns="http://www.w3.org/2000/svg"
   xmlns:sodipodi="http://sodipodi.sourceforge.net/DTD/sodipodi-0.dtd"
   xmlns:inkscape="http://www.inkscape.org/namespaces/inkscape"
   viewBox="0 0 24 24"
   version="1.1"
   id="svg4"
   sodipodi:docname="lc_selectbackground.svg"
   inkscape:export-filename="/home/jupiter007/Libreoffice yaru theme fullcolor/build/cmd/lc_selectbackground.png"
   inkscape:export-xdpi="95"
   inkscape:export-ydpi="95"
   inkscape:version="0.92.5 (2060ec1f9f, 2020-04-08)">
  <metadata
     id="metadata10">
    <rdf:RDF>
      <cc:Work
         rdf:about="">
        <dc:format>image/svg+xml</dc:format>
        <dc:type
           rdf:resource="http://purl.org/dc/dcmitype/StillImage" />
      </cc:Work>
    </rdf:RDF>
  </metadata>
  <defs
     id="defs8" />
  <sodipodi:namedview
     pagecolor="#ffffff"
     bordercolor="#666666"
     borderopacity="1"
     objecttolerance="10"
     gridtolerance="10"
     guidetolerance="10"
     inkscape:pageopacity="0"
     inkscape:pageshadow="2"
     inkscape:window-width="1920"
     inkscape:window-height="1011"
     id="namedview6"
     showgrid="true"
     inkscape:zoom="27.812867"
     inkscape:cx="2.7580786"
     inkscape:cy="9.9987747"
     inkscape:window-x="1920"
     inkscape:window-y="32"
     inkscape:window-maximized="1"
     inkscape:current-layer="svg4">
    <inkscape:grid
       type="xygrid"
       id="grid815" />
  </sodipodi:namedview>
  <path
     sodipodi:nodetypes="cccscsccccccccscscccccc"
     inkscape:connector-curvature="0"
     id="path4237-1"
     d="M 7.010772,3.99971 C 5.752572,4.01421 4.831881,3.96911 4.079131,4.384475 3.702761,4.592135 3.4059,4.943862 3.24124,5.382522 3.07657,5.821192 3.016631,6.342109 3.016631,6.999709 v 1.488281 8.5123 c 0,0.657611 0.0599,1.178577 0.224609,1.617189 0.16468,0.43861 0.461531,0.788524 0.837891,0.996092 0.75272,0.415131 1.673541,0.37165 2.931641,0.386719 h 0.002 10.005859 0.0039 c 1.25819,-0.0145 2.178891,0.0306 2.931641,-0.384766 0.37637,-0.20766 0.673221,-0.559385 0.837891,-0.998045 0.164539,-0.438671 0.224618,-0.959578 0.224618,-1.617189 V 8.466506 6.999709 c 0,-0.6576 -0.0599,-1.178577 -0.224609,-1.617187 C 20.627392,4.943922 20.330541,4.593988 19.954181,4.386428 19.201411,3.971298 18.28058,4.014789 17.02249,3.99971 h -0.002 -10.005859 z"
     style="font-style:normal;font-variant:normal;font-weight:normal;font-stretch:normal;font-size:15px;line-height:125%;font-family:Ubuntu;-inkscape-font-specification:Ubuntu;text-align:center;letter-spacing:0px;word-spacing:0px;writing-mode:lr-tb;text-anchor:middle;display:inline;opacity:0.6;fill:#000000;fill-opacity:1;stroke:none;stroke-width:0.99980211" />
  <path
     inkscape:connector-curvature="0"
     id="path1993"
     d="M 12,5.026894 C 10.443419,5.037694 6.89001,5.015144 5.340059,5.065674 4.87883,5.108344 4.323871,5.272094 4.184719,5.775641 3.965725,6.410987 4.076305,7.109428 4.038923,7.757565 c -0.0078,2.297085 -0.02297,7.596426 0.02152,9.885778 0.0391,0.46193 0.202551,1.012666 0.698756,1.163666 0.632456,0.225082 1.284144,0.12274 1.935974,0.154298 1.424235,0.0068 4.850563,0.01102 6.27642,0.01131 1.704531,3.49e-4 3.408388,-0.005 5.10719,-0.01851 0.511911,-0.01201 1.183699,0.01993 1.584745,-0.405192 0.421097,-0.539783 0.287073,-1.268021 0.322745,-1.903787 0.01187,-2.444322 0.02769,-7.911093 -0.0219,-10.356792 C 19.915093,5.886296 19.794381,5.425384 19.389234,5.243861 18.721065,4.949763 17.963029,5.075842 17.263313,5.038288 15.508906,5.026488 13.754439,5.025808 12,5.026898 Z"
     style="opacity:1;vector-effect:none;fill:#d85eca;fill-opacity:1;stroke:none;stroke-width:1;stroke-linecap:round;stroke-linejoin:bevel;stroke-miterlimit:4;stroke-dasharray:none;stroke-dashoffset:0;stroke-opacity:1"
     sodipodi:nodetypes="cccccccscccccccc" />
  <path
     style="color:#000000;display:inline;overflow:visible;visibility:visible;opacity:1;fill:#ffffff;fill-opacity:1;fill-rule:nonzero;stroke:none;stroke-width:18.28524208;marker:none;enable-background:accumulate"
     d="m 9,9.999709 -3,6 h 11 l -3.5,-4 -1.5,2 z"
     id="path1099"
     inkscape:connector-curvature="0"
     sodipodi:nodetypes="cccccc" />
  <path
     style="opacity:1;vector-effect:none;fill:#ffffff;fill-opacity:1;stroke:none;stroke-width:3;stroke-linecap:round;stroke-linejoin:bevel;stroke-miterlimit:4;stroke-dasharray:none;stroke-dashoffset:0;stroke-opacity:1"
     id="path3397"
     sodipodi:type="arc"
     sodipodi:cx="15.501921"
     sodipodi:cy="9.4912348"
     sodipodi:rx="1.5"
     sodipodi:ry="1.5"
     sodipodi:start="6.2325882"
     sodipodi:end="6.2319424"
     sodipodi:open="true"
     d="m 17.000001,9.4153715 a 1.5,1.5 0 0 1 -1.421975,1.5739315 1.5,1.5 0 0 1 -1.574161,-1.4217212 1.5,1.5 0 0 1 1.421467,-1.5743905 1.5,1.5 0 0 1 1.57462,1.4212128" />
</svg>

<svg xmlns="http://www.w3.org/2000/svg" viewBox="0 0 24 24"><path d="M7.01 4c-1.257.014-2.178-.03-2.93.384a1.88 1.88 0 00-.839.999c-.164.438-.224.96-.224 1.617v10c0 .658.06 1.179.224 1.617.165.44.462.789.838.997.753.415 1.674.371 2.932.386h10.012c1.258-.014 2.178.03 2.931-.384a1.88 1.88 0 00.838-.999c.165-.438.225-.96.225-1.617V7c0-.658-.06-1.179-.225-1.617a1.875 1.875 0 00-.838-.997c-.753-.415-1.673-.371-2.932-.386H7.015z" style="line-height:125%;-inkscape-font-specification:Ubuntu;text-align:center" font-weight="400" font-size="15" font-family="Ubuntu" letter-spacing="0" word-spacing="0" text-anchor="middle" opacity=".6"/><path d="M12 5.027c-1.557.01-5.11-.012-6.66.039-.461.042-1.016.206-1.155.71-.22.635-.109 1.333-.146 1.982-.008 2.297-.023 7.596.021 9.885.04.462.203 1.013.7 1.164.632.225 1.283.123 1.935.154 1.424.007 4.85.011 6.277.012 1.704 0 3.408-.005 5.107-.019.512-.012 1.183.02 1.585-.405.42-.54.287-1.268.322-1.904.012-2.444.028-7.911-.022-10.357-.049-.402-.17-.863-.575-1.044-.668-.294-1.426-.168-2.126-.206A716.385 716.385 0 0012 5.027z" fill="#d85eca"/><path style="marker:none" d="M9 10l-3 6h11l-3.5-4-1.5 2z" color="#000" overflow="visible" fill="#fff"/><path d="M17 9.415a1.5 1.5 0 01-1.422 1.574 1.5 1.5 0 01-1.574-1.421 1.5 1.5 0 011.421-1.575A1.5 1.5 0 0117 9.414" fill="#fff"/></svg>
